!!!OTL: 43. Skotshne
!!!Genre:	Skotshne
!!!Mode:	Minor
!!!Listening/dance:	listening
!!!:	*B-:
!!!One_Mode:	no
**kern
*I"P1
*clefG2
*k[b-e-]
*g:
*M2/4
*>A
=1
8.gL
16aJk
16b-LL
16cc
16b-
16aJJ
=2
16gLL
16f#X
16g
16aJJ
16b-LL
16cc
16b-
16aJJ
*>A1
=3
8gL
8ggJ
8fnL
8ffnJ
=4
8e-L
8ee-J
8dL
8ddJ
*>A2
=5:|!
16gLL
16ee-
16dd
16ccJJ
16b-LL
16a
16dd
16f#XJJ
=6
4g
4G
=7!|:
*>B
16gLL
16b-
16a
16gJJ
8.f#XL
16dJk
=8
16f#XLL
16g
16a
16b-JJ
4a
*>B1
=9
16ee-LL
16dd
16cc
16b-JJ
16aLL
16g
16f#X
16gJJ
=10
16ccLL
16b-
16a
16gJJ
8.f#XL
16dJk
*>B2
=11:|!
16ee-LL
16dd
16cc
16b-JJ
16aLL
16dd
16f#X
16aJJ
=12
4g
4G
*>bM
*B-:
!LO:TX:a:i:t=Bb-major
=13!|:
*>C
[4b-
16b-LL]
16f
16b-
16ddJJ
=14
[4cc
8ccL]
8ggJ
*>C1
=15
(16ggLL
16ff)
(16ff
16ee-JJ)
(16ee-LL
16dd)
(16dd
16ffJJ)
=16
(16ffLL
16ee-)
(16ee-
16ddJJ)
(16ddLL
16cc)
(16cc
16b-JJ)
*>C2
=17:|!
(16ggLL
16ff)
(16ff
16ee-JJ)
(16ee-LL
16dd)
(16dd
16ccJJ)
=18
16ccLL
16ddJJ
4b-
8r
*>eM
*g:
!LO:TX:a:i:t=G-minor
=19||
(16ddLL
16cc#X)
(16cc#
16ddJJ)
(16ddLL
16cc#)
(16cc#
16ddJJ)
=20
16ddLL
16cc#XJJ
4cc#
16b-LL
16aJJ
=21
16b-LL
16a
16g
16f#XJJ
16gLL
16a
16b-
16cc#XJJ
=22
16ddLL
16cc#XJJ
4cc#
16b-LL
16aJJ
=23
16ccnLL
16ff
16aa
16ggJJ
16ffLL
16ee-
16dd
16ccJJ
=24
16b-LL
16dd
16gg
16ffJJ
16ee-LL
16dd
16cc
16b-JJ
=25
16aLL
16ee-
16dd
16ccJJ
16b-LL
16a
16dd
16f#XJJ
=26
4g
4G
==
*-
